X: 7757
T:Schottis
R:Schottische
C:e. Janne Johansson
O:Sweden
A:J\"amtland
B:Rickard N\"aslin
M:2/4
K:G
dbba aggf| feed c2c2| \
AGFA d2d2| dBGB d2d2|\
dbba aggf| feed c2c2|
AGFA d2(dF)| G>AGF G4::\
d2(dB) e2(eB)| d2(dB) c2c2|
AGFA d2d2| dBGB d2d2|\
d2(dB) e2(eB)| d2(dB) c2c2| \
AGFA d2(dF)| G>AGF G4 :|
